X: 88
T: Missa Nunca fu\'e pena mayor / Kyrie
N: Derived from Rue1020a-Missa_Nunca_fue_pena_mayor-Kyrie.krn
C: Pierre de la Rue
%%abc-version 2.0
%%abcx-abcm2ps-target-version 5.9.1 (29 Sep 2008)
%%abc-creator hum2abc beta
%%abcx-conversion-date 2019/02/17 08:01:13
%%abc-edited-by Jesse Rodin
%%abc-edited-by Jesse Rodin; Chris Gage 10-25-2012
%%abcx-initial-encoding-date 2012/11/09/
%%humdrum-veritas 2212996902
%%humdrum-veritas-data 2035595560
%%linebreak <none>
%%barnumbers 0
L: 1/4
M: 3/1
Q: 1/2=120
%%staves [1 2 3 4]
V: 1 clef=treble
V: 2 clef=treble-8
V: 3 clef=treble-8
V: 4 clef=bass
K: C
[V:1] z12 | 
[V:2] E4G8 | 
[V:3] z12 | 
[V:4] z12 | 
[V:1] z4z4G4 | 
[V:2] A4B4B2c2- | 
[V:3] z12 | 
[V:4] z12 | 
[V:1] A4B8 | 
[V:2] cBd3cBA^G3^F | 
[V:3] z12 | 
[V:4] z4z4E,4 | 
[V:1] c6B4G2 | 
[V:2] A4z4B4 | 
[V:3] e12- | 
[V:4] A,,4E,8 | 
[V:1] A2GFE4z4 | 
[V:2] c6B4G2 | 
[V:3] e12 | 
[V:4] A,,2C,3D,E,F,G,2E,2 | 
[V:1] z4G6A2 | 
[V:2] A2GFE2e4e2 | 
[V:3] c12 | 
[V:4] F,2E,D,C,8 | 
[V:1] B4A4z2c2 | 
[V:2] d2g2z2f2e2f2 | 
[V:3] d8A4 | 
[V:4] G,4D,4z2A,2 | 
[V:1] B2c4BAGABc | 
[V:2] g2c2A2B2c2A2- | 
[V:3] e8e4 | 
[V:4] G,2A,3G,E,4D,C, | 
[V:1] d3ef2e3dcB | 
[V:2] A2^G2A4c4 | 
[V:3] d4c3de2f2- | 
[V:4] B,,4A,,4z2A,2 | 
[V:1] d2cB2AA4^G2 | 
[V:2] B2G2A4B4 | 
[V:3] fee4d2e4 | 
[V:4] G,2E,2F,4E,4 | 
[V:1] A4z4z4 | 
[V:2] A4z2G2A2B2 | 
[V:3] z12 | 
[V:4] z2C,2D,2E,2F,2E,2 | 
[V:1] z4z4z2G2 | 
[V:2] c2B2z2e2dBc2 | 
[V:3] z4z2c2d2e2 | 
[V:4] A,2G,E,F,2E,2z4 | 
[V:1] A2B2c6B2- | 
[V:2] z2d2A2c3BG2- | 
[V:3] f8e4- | 
[V:4] D,4A,6E,2- | 
[V:1] B2G2A2G4^F2 | 
[V:2] G2G2F2G2A4 | 
[V:3] e4c4d4 | 
[V:4] E,4F,2E,2D,4 | 
[V:1] G2E2G2A2B4 | 
[V:2] z2G4E2F2G2 | 
[V:3] B6c2B4 | 
[V:4] z2E,4C,2D,2E,2 | 
[V:1] c3AB2c2d4 | 
[V:2] E2G2F2E2B4 | 
[V:3] A2c2BAA4^G2 | 
[V:4] A,,2E,2D,2C,2B,,4 | 
[V:1] c3BAGF2E2D2 | 
[V:2] c8c2d2 | 
[V:3] A8G4 | 
[V:4] A,,8C,2B,,2 | 
[V:1] A3GFEE4D2 | 
[V:2] c2A3GFEF4 | 
[V:3] A12- | 
[V:4] A,,2D,4C,2D,4 | 
[V:1] E12 ||  
[V:2] E12 ||  
[V:3] A12 ||  
[V:4] A,,12 ||  
[V:1]  [K:C] [K:clef=treble][M:2/1]z8 | 
[V:2]  [K:C] [K:clef=treble-8][M:2/1]c8 | 
[V:3]  [K:C] [K:clef=treble-8][M:2/1]z8 | 
[V:4]  [K:C] [K:clef=bass][M:2/1]z8 | 
[V:1] z8 | 
[V:2] B4A4- | 
[V:3] z8 | 
[V:4] z8 | 
[V:1] c8 | 
[V:2] A2GFE2e2- | 
[V:3] z8 | 
[V:4] z8 | 
[V:1] B4A4- | 
[V:2] e2d2c2B2 | 
[V:3] z8 | 
[V:4] z4F,4- | 
[V:1] A2GFE2A2- | 
[V:2] A8 | 
[V:3] c8- | 
[V:4] F,2E,D,C,2F,2- | 
[V:1] A2G2F2E2 | 
[V:2] F2G2A4 | 
[V:3] c8 | 
[V:4] F,2E,2D,2C,2 | 
[V:1] F8 | 
[V:2] _B8 | 
[V:3] d8- | 
[V:4] _B,,8- | 
[V:1] F6GA | 
[V:2] F4_B4- | 
[V:3] d8 | 
[V:4] B,,8- | 
[V:1] _B3AG2F2 | 
[V:2] B4_B4 | 
[V:3] d8 | 
[V:4] B,,8 | 
[V:1] E6F2 | 
[V:2] G4A4 | 
[V:3] c8- | 
[V:4] C,6D,2 | 
[V:1] G8 | 
[V:2] G4E4 | 
[V:3] c4B4 | 
[V:4] E,8 | 
[V:1] z8 | 
[V:2] F4E4 | 
[V:3] A4c4- | 
[V:4] z4E,4 | 
[V:1] z4G4 | 
[V:2] z4z2e2- | 
[V:3] c2B2G4 | 
[V:4] F,4E,4 | 
[V:1] A4G4 | 
[V:2] e2d2e4 | 
[V:3] z4G4 | 
[V:4] F,4E,4 | 
[V:1] c6B2 | 
[V:2] c3defg2 | 
[V:3] A4G4 | 
[V:4] F,4E,4 | 
[V:1] A2G2G4- | 
[V:2] c2f2e2d2 | 
[V:3] c4B4 | 
[V:4] F,4G,4 | 
[V:1] G4^F4 | 
[V:2] d8 | 
[V:3] A8 | 
[V:4] D,8 | 
[V:1] G8- | 
[V:2] B4z2e2- | 
[V:3] G8 | 
[V:4] E,6C,2 | 
[V:1] G8 | 
[V:2] e2dcB2c2 | 
[V:3] z8 | 
[V:4] C,4z2C,2- | 
[V:1] z8 | 
[V:2] d4c2g2- | 
[V:3] G8- | 
[V:4] C,2B,,2C,2E,2- | 
[V:1] z8 | 
[V:2] g2fed2cd | 
[V:3] G8 | 
[V:4] E,2D,C,B,,2C,2- | 
[V:1] z8 | 
[V:2] e2d2G2A2- | 
[V:3] G4c4- | 
[V:4] C,2G,2E,2F,2- | 
[V:1] z8 | 
[V:2] AGc4B2 | 
[V:3] c4d4 | 
[V:4] F,G,E,2D,4 | 
[V:1] G8 | 
[V:2] c4z2g2- | 
[V:3] e8- | 
[V:4] C,8- | 
[V:1] G4c4- | 
[V:2] gfe4dc | 
[V:3] e8 | 
[V:4] C,8 | 
[V:1] c4d4 | 
[V:2] e2f2d4 | 
[V:3] z8 | 
[V:4] z8 | 
[V:1] e6dc | 
[V:2] c8 | 
[V:3] g8 | 
[V:4] z2C4B,A, | 
[V:1] B3cd2e2 | 
[V:2] z8 | 
[V:3] g8 | 
[V:4] G,3A,B,2C2- | 
[V:1] d4G2A2- | 
[V:2] z8 | 
[V:3] f4e2f2- | 
[V:4] C2B,2C2F,2- | 
[V:1] AGc4B2 | 
[V:2] z8 | 
[V:3] fec2d4 | 
[V:4] F,G,A,2G,4 | 
[V:1] c8 | 
[V:2] G6F2 | 
[V:3] c8- | 
[V:4] C,6D,2 | 
[V:1] z8 | 
[V:2] G2A4G2 | 
[V:3] c8 | 
[V:4] E,2F,4E,2 | 
[V:1] z8 | 
[V:2] A2E2F4 | 
[V:3] A4B4 | 
[V:4] F,2C,2D,4 | 
[V:1] c6B2 | 
[V:2] G4A4 | 
[V:3] c8 | 
[V:4] C,4F,4 | 
[V:1] A4G4- | 
[V:2] c6d2 | 
[V:3] z8 | 
[V:4] F,4E,4- | 
[V:1] G4E4 | 
[V:2] e8 | 
[V:3] c6B2 | 
[V:4] E,4C,4 | 
[V:1] F4G4 | 
[V:2] d4B4 | 
[V:3] A4G4- | 
[V:4] D,4E,4- | 
[V:1] E6FG | 
[V:2] c8 | 
[V:3] G4E4 | 
[V:4] E,2A,,2A,,4- | 
[V:1] A4G4- | 
[V:2] c4B4 | 
[V:3] F4G4 | 
[V:4] A,,4E,4- | 
[V:1] G2ABc4- | 
[V:2] c4e4- | 
[V:3] E6FG | 
[V:4] E,2A,,2A,,4- | 
[V:1] c4B4- | 
[V:2] e4e4 | 
[V:3] A4G4 | 
[V:4] A,,4E,4- | 
[V:1] B2cde4- | 
[V:2] B4g4- | 
[V:3] z2G4AB | 
[V:4] E,4E,4 | 
[V:1] e4z2d2- | 
[V:2] g2f2e2d2 | 
[V:3] c4B4- | 
[V:4] C,4G,4 | 
[V:1] d2c2B2A2 | 
[V:2] g8- | 
[V:3] B2cde4- | 
[V:4] G,6F,2 | 
[V:1] G2F2E4- | 
[V:2] g8 | 
[V:3] e4z4 | 
[V:4] E,2D,2C,2B,,2 | 
[V:1] E4E2F2 | 
[V:2] z8 | 
[V:3] z2g4f2 | 
[V:4] A,,2E,4D,2 | 
[V:1] G2A4^G2 | 
[V:2] z4e4 | 
[V:3] e2d2c2B2 | 
[V:4] E,4E,4 | 
[V:1] A8 | 
[V:2] c4f4- | 
[V:3] A4z2d2- | 
[V:4] F,4D,4 | 
[V:1] z8 | 
[V:2] f2e2d4 | 
[V:3] d2c2B2A2 | 
[V:4] z2G,4F,2 | 
[V:1] z8 | 
[V:2] g4gfed | 
[V:3] G2F2E4- | 
[V:4] E,2D,2C,2B,,2 | 
[V:1] z2c4B2 | 
[V:2] c4e4- | 
[V:3] E4E4- | 
[V:4] A,,6B,,2 | 
[V:1] A2G2F2E2 | 
[V:2] e4d4 | 
[V:3] E4A4- | 
[V:4] C,4D,4- | 
[V:1] D4E4- | 
[V:2] z2d2c2A2 | 
[V:3] A2G2E4 | 
[V:4] D,2B,,2C,4 | 
[V:1] E2DCD2A2 | 
[V:2] B4A4 | 
[V:3] F8 | 
[V:4] D,8 | 
[V:1] B2c4BA | 
[V:2] e8 | 
[V:3] E8- | 
[V:4] z2A,,3B,,C,D, | 
[V:1] G2A2B4 | 
[V:2] z8 | 
[V:3] E8- | 
[V:4] E,2F,2G,3A, | 
[V:1] E8- | 
[V:2] z4z2c2- | 
[V:3] E8- | 
[V:4] B,2C4B,A, | 
[V:1] E8- | 
[V:2] c2BAG2A2 | 
[V:3] E8- | 
[V:4] G,2A,2B,4 | 
[V:1] E8- | 
[V:2] B2E2B4 | 
[V:3] E8- | 
[V:4] E,8- | 
[V:1] E8 ||  
[V:2] c4B4 ||  
[V:3] E8 ||  
[V:4] E,8 ||  
[V:1]  [K:C] [K:clef=treble][M:3/1]G6E2F4 | 
[V:2]  [K:C] [K:clef=treble-8][M:3/1]e4c2B2d4 | 
[V:3]  [K:C] [K:clef=treble-8][M:3/1]c6G2A2B2 | 
[V:4]  [K:C] [K:clef=bass][M:3/1]C,4E,4D,4 | 
[V:1] E3FGAB4AG | 
[V:2] G2A2G2E4e2- | 
[V:3] c3de8 | 
[V:4] C,4z2G,4E,2 | 
[V:1] A4z2G2G3A | 
[V:2] e2d2B2c2B2G2 | 
[V:3] z4e4d4 | 
[V:4] F,4E,4z2G,2 | 
[V:1] Bcd4cBc4 | 
[V:2] d3cd2e2c4 | 
[V:3] g8f2e2 | 
[V:4] G,3A,B,2C2A,4 | 
[V:1] B6G2G3A | 
[V:2] d2B2d2e4dc | 
[V:3] g8z4 | 
[V:4] G,4z2E,2E,3F, | 
[V:1] B2c2A4G4 | 
[V:2] B2A2c2d2G2c2 | 
[V:3] z12 | 
[V:4] G,2A,2F,4E,4- | 
[V:1] E3FG2A2F4 | 
[V:2] B2e4dcd4 | 
[V:3] z12 | 
[V:4] E,4z4z4 | 
[V:1] E6DCD4 | 
[V:2] e4z4z4 | 
[V:3] z12 | 
[V:4] E,3F,G,2A,2F,3E, | 
[V:1] z2E2F2G2A2GF | 
[V:2] z12 | 
[V:3] c12- | 
[V:4] C,4F,2E,2F,2G,2 | 
[V:1] E2A2G2F2G2A2 | 
[V:2] z12 | 
[V:3] c8d4 | 
[V:4] A,2G,F,E,2A,2G,2F,2 | 
[V:1] _B2AGF2G2A2=B2 | 
[V:2] z12 | 
[V:3] d12 | 
[V:4] G,2A,2_B,2A,G,F,2G,2 | 
[V:1] c3BG6FE | 
[V:2] z12 | 
[V:3] c8B4- | 
[V:4] A,2B,2C3B,G,4- | 
[V:1] D8D4 | 
[V:2] z4z4z2g2- | 
[V:3] B12 | 
[V:4] G,2F,E,D,2G,3F,E,D, | 
[V:1] E3FG2A2B4 | 
[V:2] gfedc2F2G2g2 | 
[V:3] c3de2f2d4 | 
[V:4] C,4z4G,4 | 
[V:1] c8c4 | 
[V:2] e2a4g4^f2 | 
[V:3] c8c4 | 
[V:4] A,2C3B,A,G,A,4 | 
[V:1] B2d3cBAG2c2 | 
[V:2] g2f2d2g3fe2- | 
[V:3] d4B4c4 | 
[V:4] G,2D,2G,3F,E,D,C,2 | 
[V:1] B2A4G4^F2 | 
[V:2] edd4c2d4- | 
[V:3] d4G4A4 | 
[V:4] G,2D,2E,4D,4 | 
[V:1] G12 |]  
[V:2] d12 |]  
[V:3] G12 |]  
[V:4] G,12 |]  



